X:1397
T:Betsy Baker. GS.105
T:Push About The Jorum,aka. GS.105
M:2/4
L:1/8
Q:300
S:George Spencer m/s, Leeds,1831
R:Misc.
O:England
A:Leeds
N:Very Kerry Polka - like. In margin in pencil "Air - Push About The
N:Jorum"
H:1831
Z:vmp.Cherri Graebe
K:G major
g | dBBG | FAAc | BGBd | g3 g>e | dBBG | FAAd | BcdB | G3 G/ :||:!
d | efge | afdd | efge | f2 dd | efge | afga | bgfd | g3 g>e |! dBBG | F
AAc | 
BGBd | g3 g>e | dBBG | FAAc | BcdB | G3 G :||


